src/pages/Main/ui/TimeLine/images/slack.svg

<svg fill="none" height="29" viewBox="0 0 29 29" width="29" xmlns="http://www.w3.org/2000/svg" xmlns:xlink="http://www.w3.org/1999/xlink"><mask id="a" fill="#fff"><path d="m6.15151 18.4577c-.00125 1.9413-1.37955 3.5135-3.07826 3.5121-1.69872-.002-3.07450404-1.577-3.07324914-3.5183.0012549-1.9403 1.37829914-3.512 3.07575914-3.512h3.07575v3.5177z" fill="#fff"/></mask><mask id="b" fill="#fff"><path d="m7.03125 18.06c.00096-1.7242 1.5752-3.1214 3.51655-3.1205 1.94.0008 3.5128 1.3972 3.5138 3.1205v7.817c.0009 1.7241-1.5724 3.1226-3.5138 3.1231-1.94135.0008-3.51607-1.3964-3.51655-3.1206v-7.8199z" fill="#fff"/></mask><mask id="c" fill="#fff"><path d="m10.5435 6.15151c-1.94135-.00125-3.51368-1.37955-3.51225-3.07826.00144-1.69872 1.57663-3.07450404 3.51805-3.07324914 1.9404.0012549 3.5123 1.37829914 3.5123 3.07575914v3.07575z" fill="#fff"/></mask><mask id="d" fill="#fff"><path d="m10.9396 7.03027c1.7244.00096 3.1219 1.5752 3.121 3.51663-.0008 1.9399-1.3974 3.5127-3.121 3.5137h-7.81861c-1.7244-.001-3.12183886-1.5752-3.12098961-3.5166.00084925-1.93996 1.39743961-3.51277 3.12098961-3.51373h7.81821z" fill="#fff"/></mask><mask id="e" fill="#fff"><path d="m22.8477 10.5426c.0012-1.94143 1.3795-3.51376 3.0782-3.51233 1.6987.00144 3.0745 1.57664 3.0733 3.51803-.0013 1.9404-1.3783 3.5123-3.0758 3.5123h-3.0757z" fill="#fff"/></mask><mask id="f" fill="#fff"><path d="m21.9678 10.9402c-.001 1.7241-1.5752 3.1213-3.5166 3.1204-1.9399-.0008-3.5127-1.3972-3.5137-3.1204v-7.81722c-.001-1.72409 1.5723-3.12213052 3.5137-3.12297961 1.9414-.0008491 3.5161 1.39633961 3.5166 3.12042961z" fill="#fff"/></mask><mask id="g" fill="#fff"><path d="m18.4555 22.8486c1.9414.0013 3.5137 1.3796 3.5123 3.0783s-1.5766 3.0745-3.518 3.0732c-1.9404-.0012-3.5123-1.3783-3.5123-3.0757v-3.0758z" fill="#fff"/></mask><mask id="h" fill="#fff"><path d="m18.058 21.9698c-1.7241-.001-3.1213-1.5752-3.1205-3.5166.0008-1.94 1.3972-3.5128 3.1205-3.5137h7.817c1.7242-.001 3.1227 1.5723 3.1231 3.5137.0009 1.9414-1.3964 3.5161-3.1205 3.5166h-7.82z" fill="#fff"/></mask><g stroke="#fff" stroke-width="1.2"><path d="m6.15151 18.4577c-.00125 1.9413-1.37955 3.5135-3.07826 3.5121-1.69872-.002-3.07450404-1.577-3.07324914-3.5183.0012549-1.9403 1.37829914-3.512 3.07575914-3.512h3.07575v3.5177z" mask="url(#a)"/><path d="m7.03125 18.06c.00096-1.7242 1.5752-3.1214 3.51655-3.1205 1.94.0008 3.5128 1.3972 3.5138 3.1205v7.817c.0009 1.7241-1.5724 3.1226-3.5138 3.1231-1.94135.0008-3.51607-1.3964-3.51655-3.1206v-7.8199z" mask="url(#b)"/><path d="m10.5435 6.15151c-1.94135-.00125-3.51368-1.37955-3.51225-3.07826.00144-1.69872 1.57663-3.07450404 3.51805-3.07324914 1.9404.0012549 3.5123 1.37829914 3.5123 3.07575914v3.07575z" mask="url(#c)"/><path d="m10.9396 7.03027c1.7244.00096 3.1219 1.5752 3.121 3.51663-.0008 1.9399-1.3974 3.5127-3.121 3.5137h-7.81861c-1.7244-.001-3.12183886-1.5752-3.12098961-3.5166.00084925-1.93996 1.39743961-3.51277 3.12098961-3.51373h7.81821z" mask="url(#d)"/><path d="m22.8477 10.5426c.0012-1.94143 1.3795-3.51376 3.0782-3.51233 1.6987.00144 3.0745 1.57664 3.0733 3.51803-.0013 1.9404-1.3783 3.5123-3.0758 3.5123h-3.0757z" mask="url(#e)"/><path d="m21.9678 10.9402c-.001 1.7241-1.5752 3.1213-3.5166 3.1204-1.9399-.0008-3.5127-1.3972-3.5137-3.1204v-7.81722c-.001-1.72409 1.5723-3.12213052 3.5137-3.12297961 1.9414-.0008491 3.5161 1.39633961 3.5166 3.12042961z" mask="url(#f)"/><path d="m18.4555 22.8486c1.9414.0013 3.5137 1.3796 3.5123 3.0783s-1.5766 3.0745-3.518 3.0732c-1.9404-.0012-3.5123-1.3783-3.5123-3.0757v-3.0758z" mask="url(#g)"/><path d="m18.058 21.9698c-1.7241-.001-3.1213-1.5752-3.1205-3.5166.0008-1.94 1.3972-3.5128 3.1205-3.5137h7.817c1.7242-.001 3.1227 1.5723 3.1231 3.5137.0009 1.9414-1.3964 3.5161-3.1205 3.5166h-7.82z" mask="url(#h)"/></g></svg>

<svg width="29" height="29" viewBox="0 0 29 29" fill="none" xmlns="http://www.w3.org/2000/svg">
<mask id="path-1-inside-1_2187_617" fill="white">
<path d="M6.15151 18.4577C6.15026 20.399 4.77196 21.9712 3.07325 21.9698C1.37453 21.9678 -0.00125404 20.3928 8.57792e-07 18.4515C0.00125576 16.5112 1.3783 14.9395 3.07576 14.9395H6.15151V18.4572V18.4577Z"/>
</mask>
<path d="M6.15151 18.4577C6.15026 20.399 4.77196 21.9712 3.07325 21.9698C1.37453 21.9678 -0.00125404 20.3928 8.57792e-07 18.4515C0.00125576 16.5112 1.3783 14.9395 3.07576 14.9395H6.15151V18.4572V18.4577Z" stroke="white" stroke-width="1.2" mask="url(#path-1-inside-1_2187_617)"/>
<mask id="path-2-inside-2_2187_617" fill="white">
<path d="M7.03125 18.06C7.03221 16.3358 8.60645 14.9386 10.5478 14.9395C12.4878 14.9403 14.0606 16.3367 14.0616 18.06V25.877C14.0625 27.6011 12.4892 28.9996 10.5478 29.0001C8.60645 29.0009 7.03173 27.6037 7.03125 25.8795V18.0596V18.06Z"/>
</mask>
<path d="M7.03125 18.06C7.03221 16.3358 8.60645 14.9386 10.5478 14.9395C12.4878 14.9403 14.0606 16.3367 14.0616 18.06V25.877C14.0625 27.6011 12.4892 28.9996 10.5478 29.0001C8.60645 29.0009 7.03173 27.6037 7.03125 25.8795V18.0596V18.06Z" stroke="white" stroke-width="1.2" mask="url(#path-2-inside-2_2187_617)"/>
<mask id="path-3-inside-3_2187_617" fill="white">
<path d="M10.5435 6.15151C8.60215 6.15026 7.02982 4.77196 7.03125 3.07325C7.03269 1.37453 8.60788 -0.00125404 10.5493 8.57792e-07C12.4897 0.00125576 14.0616 1.3783 14.0616 3.07576V6.15151H10.5435Z"/>
</mask>
<path d="M10.5435 6.15151C8.60215 6.15026 7.02982 4.77196 7.03125 3.07325C7.03269 1.37453 8.60788 -0.00125404 10.5493 8.57792e-07C12.4897 0.00125576 14.0616 1.3783 14.0616 3.07576V6.15151H10.5435Z" stroke="white" stroke-width="1.2" mask="url(#path-3-inside-3_2187_617)"/>
<mask id="path-4-inside-4_2187_617" fill="white">
<path d="M10.9396 7.03027C12.664 7.03123 14.0615 8.60547 14.0606 10.5469C14.0598 12.4868 12.6632 14.0596 10.9396 14.0606H3.12099C1.39659 14.0596 -0.000848863 12.4854 3.86873e-07 10.544C0.000849637 8.60404 1.39744 7.03123 3.12099 7.03027H10.9392H10.9396Z"/>
</mask>
<path d="M10.9396 7.03027C12.664 7.03123 14.0615 8.60547 14.0606 10.5469C14.0598 12.4868 12.6632 14.0596 10.9396 14.0606H3.12099C1.39659 14.0596 -0.000848863 12.4854 3.86873e-07 10.544C0.000849637 8.60404 1.39744 7.03123 3.12099 7.03027H10.9392H10.9396Z" stroke="white" stroke-width="1.2" mask="url(#path-4-inside-4_2187_617)"/>
<mask id="path-5-inside-5_2187_617" fill="white">
<path d="M22.8477 10.5426C22.8489 8.60117 24.2272 7.02884 25.9259 7.03027C27.6246 7.03171 29.0004 8.60691 28.9992 10.5483C28.9979 12.4887 27.6209 14.0606 25.9234 14.0606H22.8477V10.5426Z"/>
</mask>
<path d="M22.8477 10.5426C22.8489 8.60117 24.2272 7.02884 25.9259 7.03027C27.6246 7.03171 29.0004 8.60691 28.9992 10.5483C28.9979 12.4887 27.6209 14.0606 25.9234 14.0606H22.8477V10.5426Z" stroke="white" stroke-width="1.2" mask="url(#path-5-inside-5_2187_617)"/>
<mask id="path-6-inside-6_2187_617" fill="white">
<path d="M21.9678 10.9402C21.9668 12.6643 20.3926 14.0615 18.4512 14.0606C16.5113 14.0598 14.9385 12.6634 14.9375 10.9402V3.12298C14.9365 1.39889 16.5098 0.000849483 18.4512 3.86803e-07C20.3926 -0.000848709 21.9673 1.39634 21.9678 3.12043V10.9402Z"/>
</mask>
<path d="M21.9678 10.9402C21.9668 12.6643 20.3926 14.0615 18.4512 14.0606C16.5113 14.0598 14.9385 12.6634 14.9375 10.9402V3.12298C14.9365 1.39889 16.5098 0.000849483 18.4512 3.86803e-07C20.3926 -0.000848709 21.9673 1.39634 21.9678 3.12043V10.9402Z" stroke="white" stroke-width="1.2" mask="url(#path-6-inside-6_2187_617)"/>
<mask id="path-7-inside-7_2187_617" fill="white">
<path d="M18.4555 22.8486C20.3969 22.8499 21.9692 24.2282 21.9678 25.9269C21.9664 27.6256 20.3912 29.0014 18.4498 29.0001C16.5094 28.9989 14.9375 27.6218 14.9375 25.9244V22.8486H18.4555Z"/>
</mask>
<path d="M18.4555 22.8486C20.3969 22.8499 21.9692 24.2282 21.9678 25.9269C21.9664 27.6256 20.3912 29.0014 18.4498 29.0001C16.5094 28.9989 14.9375 27.6218 14.9375 25.9244V22.8486H18.4555Z" stroke="white" stroke-width="1.2" mask="url(#path-7-inside-7_2187_617)"/>
<mask id="path-8-inside-8_2187_617" fill="white">
<path d="M18.058 21.9698C16.3339 21.9688 14.9367 20.3946 14.9375 18.4532C14.9383 16.5132 16.3347 14.9404 18.058 14.9395H25.875C27.5992 14.9385 28.9977 16.5118 28.9981 18.4532C28.999 20.3946 27.6017 21.9693 25.8776 21.9698H18.0576H18.058Z"/>
</mask>
<path d="M18.058 21.9698C16.3339 21.9688 14.9367 20.3946 14.9375 18.4532C14.9383 16.5132 16.3347 14.9404 18.058 14.9395H25.875C27.5992 14.9385 28.9977 16.5118 28.9981 18.4532C28.999 20.3946 27.6017 21.9693 25.8776 21.9698H18.0576H18.058Z" stroke="white" stroke-width="1.2" mask="url(#path-8-inside-8_2187_617)"/>
</svg>
